frontend/public/svg/interface/bell.svg

<svg width="156" height="154" viewBox="0 0 156 154" fill="none" xmlns="http://www.w3.org/2000/svg">
<g clip-path="url(#clip0)">
<path d="M100.067 130.831C98.9783 138.089 96.8323 144.768 90.4105 149.127C86.0446 152.182 80.7837 153.699 75.4573 153.439C63.2584 152.864 55.602 146.127 52.993 133.403C51.943 133.403 50.8008 133.37 49.6607 133.409C36.9344 133.845 24.21 134.315 11.4825 134.703C9.65055 134.754 7.81928 134.583 6.02857 134.194C4.77659 133.896 3.60662 133.324 2.60413 132.519C2.22012 132.255 1.90766 131.902 1.69466 131.487C1.48165 131.074 1.37482 130.614 1.38369 130.149C1.39256 129.684 1.51702 129.229 1.74564 128.823C1.97426 128.418 2.29997 128.076 2.69374 127.827C12.4679 121.039 16.4043 110.718 19.6567 100.022C22.2463 91.5037 22.7866 82.6804 23.0694 73.8442C23.4254 62.6878 25.2317 51.8676 29.4031 41.4033C34.8352 27.7743 44.6871 19.0196 58.2629 14.1453C60.2046 13.4485 61.1481 12.6035 61.5515 10.4895C62.8563 3.65142 67.0879 0.330891 74.0259 0.290774C80.798 0.254539 86.042 4.21564 87.3462 10.6383C87.4338 11.4129 87.749 12.1445 88.2522 12.7406C88.7555 13.3368 89.4248 13.771 90.1745 13.9883C100.624 17.98 108.555 24.9041 114.36 34.4683C122.129 47.2671 126.763 61.127 129.299 75.7905C130.124 80.558 131.269 85.2699 132.23 90.0142C134.512 101.273 140.522 109.905 150.265 116.069C152.04 117.24 153.499 118.826 154.517 120.689C155.927 123.282 154.836 126.008 152.016 126.955C149.37 127.827 146.618 128.341 143.836 128.486C130.259 129.225 116.672 129.786 103.09 130.427C102.143 130.476 101.2 130.677 100.067 130.831ZM118.606 83.6555C118.839 83.0673 119.005 82.8583 118.98 82.6765C118.731 80.8647 118.443 79.0614 118.178 77.2529C116.211 63.8248 112.269 51.0964 105.307 39.3225C97.1248 25.4839 82.9971 18.654 67.2423 21.7347C55.7178 23.9878 46.2475 29.6989 40.8471 40.5067C38.4663 45.2736 36.3072 50.3912 35.3824 55.5865C33.8811 64.0235 33.4415 72.651 32.6334 81.2057C32.3643 84.0528 32.3401 86.9231 32.1793 90.3157C61.2843 88.0646 90.0966 86.6792 118.606 83.6555ZM19.3039 125.036C57.705 122.324 95.3718 121.53 133.464 117.405C126.66 110.409 123.678 102.153 121.25 93.7457L31.3104 97.2399C30.1476 107.199 26.2763 116.387 19.3039 125.036ZM60.0075 132.846C61.5964 140.46 68.6976 145.118 76.9074 144.264C84.3876 143.488 88.7522 138.898 88.8229 131.262L60.0075 132.846ZM67.9193 11.142H78.8348C77.3231 8.14089 74.9482 7.73195 72.4565 7.81413C70.3202 7.8853 68.4933 8.64107 67.9213 11.142H67.9193Z" fill="black"/>
</g>
<defs>
<clipPath id="clip0">
<rect width="155" height="154" fill="white" transform="translate(0.777344)"/>
</clipPath>
</defs>
</svg>

<svg xmlns="http://www.w3.org/2000/svg" width="156" height="154" fill="none" viewBox="0 0 156 154"><g clip-path="url(#a)"><path fill="#000" d="M100.067 130.831c-1.089 7.258-3.235 13.937-9.656 18.296a24.04 24.04 0 0 1-14.954 4.312c-12.199-.575-19.855-7.312-22.464-20.036-1.05 0-2.192-.033-3.332.006-12.727.436-25.451.906-38.178 1.294a22.7 22.7 0 0 1-5.454-.509 8.7 8.7 0 0 1-3.425-1.675 2.807 2.807 0 0 1 .09-4.692c9.774-6.788 13.71-17.109 16.963-27.805 2.59-8.518 3.13-17.342 3.412-26.178.356-11.156 2.163-21.976 6.334-32.44 5.432-13.63 15.284-22.384 28.86-27.259 1.942-.697 2.885-1.541 3.288-3.655C62.857 3.65 67.089.33 74.027.29c6.772-.035 12.016 3.926 13.32 10.348a3.95 3.95 0 0 0 2.828 3.35c10.45 3.992 18.381 10.916 24.186 20.48 7.769 12.8 12.403 26.659 14.939 41.322.825 4.768 1.97 9.48 2.931 14.224 2.282 11.259 8.292 19.891 18.035 26.055a13 13 0 0 1 4.252 4.62c1.41 2.593.319 5.319-2.501 6.266a31.4 31.4 0 0 1-8.18 1.531c-13.577.739-27.164 1.3-40.746 1.941-.947.049-1.89.25-3.023.404m18.539-47.175c.233-.589.399-.798.374-.98-.249-1.811-.537-3.615-.802-5.423-1.967-13.428-5.909-26.157-12.871-37.93-8.182-13.84-22.31-20.669-38.065-17.588-11.524 2.253-20.995 7.964-26.395 18.772-2.38 4.767-4.54 9.884-5.465 15.08-1.5 8.436-1.94 17.064-2.749 25.619-.269 2.847-.293 5.717-.454 9.11 29.105-2.251 57.918-3.637 86.427-6.66m-99.302 41.38c38.401-2.712 76.068-3.506 114.16-7.631-6.804-6.996-9.786-15.252-12.214-23.66L31.31 97.24c-1.162 9.959-5.034 19.147-12.006 27.796m40.704 7.81c1.588 7.614 8.69 12.272 16.9 11.418 7.48-.776 11.844-5.366 11.915-13.002zm7.911-121.704h10.916c-1.512-3.001-3.887-3.41-6.378-3.328-2.137.071-3.964.827-4.536 3.328z"/></g><defs><clipPath id="a"><path fill="#fff" d="M.777 0h155v154h-155z"/></clipPath></defs></svg>
